public/assets/images/mexa.svg

<svg width="76" height="80" viewBox="0 0 76 80" fill="none" xmlns="http://www.w3.org/2000/svg">
<path fill-rule="evenodd" clip-rule="evenodd" d="M38 0C41.7559 0 43.6339 0 45.1152 0.608964C47.0904 1.42092 48.6596 2.97831 49.4778 4.93853C49.8512 5.83332 49.9974 6.87391 50.0546 8.39175C50.1387 10.6226 51.2914 12.6876 53.2395 13.8038C55.1876 14.9201 57.5659 14.8784 59.5547 13.8352C60.9078 13.1254 61.8889 12.7308 62.8564 12.6043C64.976 12.3274 67.1197 12.8974 68.8158 14.1891C70.0878 15.1578 71.0268 16.7719 72.9048 20L72.9048 20.0001C74.7828 23.2282 75.7217 24.8422 75.931 26.4199C76.2101 28.5235 75.6357 30.6509 74.3342 32.3342C73.7401 33.1026 72.905 33.7486 71.609 34.5568C69.7044 35.7443 68.479 37.7674 68.4788 39.9996C68.4787 42.2321 69.7042 44.2555 71.609 45.4432C72.9048 46.2513 73.7397 46.8972 74.3338 47.6655C75.6353 49.3488 76.2097 51.4763 75.9306 53.5798C75.7213 55.1575 74.7823 56.7716 72.9044 59.9997C71.0264 63.2279 70.0874 64.8419 68.8154 65.8107C67.1193 67.1023 64.9756 67.6723 62.856 67.3954C61.8885 67.269 60.9075 66.8743 59.5544 66.1646C57.5656 65.1214 55.1872 65.0798 53.2391 66.1961C51.2913 67.3124 50.1386 69.3772 50.0546 71.6079C49.9974 73.1259 49.8513 74.1666 49.4778 75.0615C48.6596 77.0217 47.0904 78.5791 45.1152 79.391C43.6339 80 41.7559 80 38 80C34.2441 80 32.3661 80 30.8848 79.391C28.9096 78.5791 27.3404 77.0217 26.5222 75.0615C26.1488 74.1667 26.0026 73.1261 25.9454 71.6083C25.8613 69.3774 24.7086 67.3124 22.7605 66.1962C20.8124 65.0799 18.4341 65.1216 16.4453 66.1648C15.0922 66.8746 14.1111 67.2692 13.1436 67.3957C11.024 67.6726 8.88033 67.1026 7.18423 65.8109C5.91215 64.8422 4.97318 63.2281 3.09522 60C1.21726 56.7719 0.278281 55.1578 0.0689937 53.5801C-0.210056 51.4765 0.364329 49.3491 1.66579 47.6658C2.25989 46.8974 3.09486 46.2515 4.39081 45.4434C6.29546 44.2557 7.52104 42.2325 7.52116 40.0001C7.52129 37.7674 6.29566 35.7439 4.39082 34.5561C3.09509 33.7481 2.26022 33.1022 1.66619 32.3339C0.364724 30.6506 -0.209662 28.5232 0.0693881 26.4196C0.278676 24.8419 1.21766 23.2279 3.09561 19.9997C4.97357 16.7716 5.91255 15.1575 7.18462 14.1888C8.88072 12.8972 11.0244 12.3271 13.144 12.6041C14.1115 12.7305 15.0927 13.1252 16.4459 13.835C18.4346 14.8782 20.8127 14.9199 22.7607 13.8037C24.7086 12.6876 25.8613 10.6227 25.9454 8.39196C26.0026 6.87401 26.1488 5.83336 26.5222 4.93853C27.3404 2.97831 28.9096 1.42092 30.8848 0.608964C32.3661 0 34.2441 0 38 0ZM37.9976 52C44.6755 52 50.089 46.6274 50.089 40C50.089 33.3726 44.6755 28 37.9976 28C31.3197 28 25.9062 33.3726 25.9062 40C25.9062 46.6274 31.3197 52 37.9976 52Z" fill="url(#paint0_radial_169_2072)"/>
<defs>
<radialGradient id="paint0_radial_169_2072" cx="0" cy="0" r="1" gradientUnits="userSpaceOnUse" gradientTransform="translate(98.4028 66.0441) rotate(-154.348) scale(83.5292 61.764)">
<stop stop-color="#C6B38A"/>
<stop offset="0.463601" stop-color="#F3C691"/>
<stop offset="1" stop-color="#B4703E"/>
</radialGradient>
</defs>
</svg>

<svg xmlns="http://www.w3.org/2000/svg" width="76" height="80" fill="none" xmlns:v="https://vecta.io/nano"><path fill-rule="evenodd" d="M38 0c3.756 0 5.634 0 7.115.609a8.03 8.03 0 0 1 4.363 4.33c.373.895.52 1.935.577 3.453.084 2.231 1.237 4.296 3.185 5.412s4.326 1.075 6.315.031c1.353-.71 2.334-1.104 3.302-1.231 2.12-.277 4.263.293 5.959 1.585 1.272.969 2.211 2.583 4.089 5.811h0c1.878 3.228 2.817 4.842 3.026 6.42.279 2.104-.295 4.231-1.597 5.914-.594.768-1.429 1.414-2.725 2.223-1.905 1.188-3.13 3.211-3.13 5.443s1.225 4.256 3.13 5.444c1.296.808 2.131 1.454 2.725 2.222 1.302 1.683 1.876 3.811 1.597 5.914-.209 1.578-1.148 3.192-3.026 6.42s-2.817 4.842-4.089 5.811c-1.696 1.292-3.84 1.862-5.959 1.585-.968-.126-1.949-.521-3.302-1.231-1.989-1.043-4.367-1.085-6.315.032s-3.101 3.181-3.184 5.412c-.057 1.518-.203 2.559-.577 3.454a8.03 8.03 0 0 1-4.363 4.33C43.634 80 41.756 80 38 80s-5.634 0-7.115-.609a8.03 8.03 0 0 1-4.363-4.33c-.373-.895-.52-1.935-.577-3.453-.084-2.231-1.237-4.296-3.185-5.412s-4.326-1.075-6.315-.031c-1.353.71-2.334 1.104-3.302 1.231-2.12.277-4.263-.293-5.959-1.585-1.272-.969-2.211-2.583-4.089-5.811S.278 55.158.069 53.58c-.279-2.104.295-4.231 1.597-5.914.594-.768 1.429-1.414 2.725-2.222 1.905-1.188 3.13-3.211 3.13-5.443s-1.226-4.256-3.13-5.444c-1.296-.808-2.131-1.454-2.725-2.222C.365 30.651-.21 28.523.069 26.42.279 24.842 1.218 23.228 3.096 20s2.817-4.842 4.089-5.811c1.696-1.292 3.84-1.862 5.959-1.585.967.126 1.949.521 3.302 1.231 1.989 1.043 4.367 1.085 6.315-.031s3.101-3.181 3.185-5.412c.057-1.518.203-2.559.577-3.453a8.03 8.03 0 0 1 4.363-4.33C32.366 0 34.244 0 38 0zm-.002 52c6.678 0 12.091-5.373 12.091-12s-5.413-12-12.091-12-12.091 5.373-12.091 12 5.414 12 12.091 12z" fill="url(#A)"/><defs><radialGradient id="A" cx="0" cy="0" r="1" gradientUnits="userSpaceOnUse" gradientTransform="translate(98.4028 66.0441) rotate(-154.348) scale(83.5292 61.764)"><stop stop-color="#c6b38a"/><stop offset=".464" stop-color="#f3c691"/><stop offset="1" stop-color="#b4703e"/></radialGradient></defs></svg>
